X:1
T:School Of Velocity
T:Carl Czerny (1791-1857)
T:Op. 299, No. 5
%%score { ( 1 3 ) | 2 }
L:1/8
Q:1/4=80
M:4/4
K:C
V:1 treble nm="Piano"
V:3 treble 
V:2 bass 
V:1
"C""^5.""^Updated Sep 15, 2014" !1!C/D/!3!E/!1!F/ G/A/B/!5!c/"G/B" !1!D/E/!3!F/!1!G/ A/B/c/!5!d/ | %1
"C" !1!E/F/G/!1!A/ B/c/d/e/"G7/D" F/G/A/B/ c/d/e/f/ |"C/E" G/A/B/c/ d/e/f/g/"F" A/B/c/d/ e/f/g/a/ | %3
"G7" B/c/d/e/ f/g/a/b/"Am" c/d/e/f/ g/a/b/c'/ |"G7/B" d/e/f/g/ a/b/c'/d'/"C" e/f/g/a/ b/c'/d'/e'/ | %5
"Dm" f/g/a/b/ c'/d'/e'/f'/"C/E" g/a/b/c'/ d'/e'/f'/g'/ | %6
"F"!8va(! !1!a/!4!^g'/a'/g'/ a'/g'/a'/g'/ a'/=g'/f'/e'/ d'/c'/b/a/ | %7
"C/E" !1!g/!4!^f'/g'/f'/ g'/f'/g'/f'/ g'/=f'/e'/d'/ c'/b/a/g/ | %8
"G/D" !1!f/!4!e'/f'/e'/ f'/e'/f'/e'/ f'/e'/d'/c'/ !1!b/!4!a/g/f/!8va)! | %9
"C" !1!e/!4!^d'/e'/d'/ e'/d'/e'/d'/ e'/=d'/c'/b/ a/g/f/e/ | %10
"Dm/F" !1!d/e/!3!f/!1!g/ a/b/^c'/d'/"A7/G" !4!c'/_b/a/!1!g/ !3!f/e/d/!2!^c/ | %11
"Dm/F" !1!d/e/f/!1!g/ a/b/^c'/d'/"A7/G" !4!c'/_b/a/!1!g/ !3!f/e/d/!2!^c/ | %12
"Dm/F" !1!d/e/!3!f/g/ a/=b/^c'/!5!d'/"D7/F#"!8va(! !2!b/!1!=c'/d'/e'/ !4!^f'/!1!g'/!2!a'/!3!b'/ | %13
 !5!d''/c''/b'/a'/ !1!g'/!4!^f'/e'/d'/!8va)! !1!c'/!3!b/a/!1!g/ !4!^f/e/d/c/ |"G" !2!B z z2 !2!B4 | %15
 !1!!2![GB] z !1!!3![GB] z [GB] z [GB] z | !2![^FA]3 z !2!^f4 | %17
 !1!!2![c^f] z !1!!4![cf] z [cf] z [cf] z |"G" (g2 d2)!8va(! (!5!g'3 !3!d' | %19
 !1!!2![gb]) z !1!!3![gb] z [gb] z [gb] z | !1!!2![^fa]3 z !2!^f'4 | %21
 !1!!2![c'^f'] z !4![c'f'] z [c'f'] z [c'f'] z | %22
"G" [bg'] z z2 !5!d''/c''/b'/a'/ !1!g'/!4!^f'/e'/d'/ | %23
 !1!c'/d'/e'/!4!^f'/ !1!g'/a'/b'/!4!c''/ !2!a'/!1!g'/!4!f'/e'/ d'/!1!c'/!3!b/!2!a/!8va)! | %24
 (!3!b2 g) z"G/B" !5!d'/c'/b/a/ !1!g/!4!^f/e/d/ | %25
"D7/A" !1!c/d/e/!4!^f/ !1!g/a/b/!4!c'/"D7" !2!a/!1!g/!4!f/e/ d/c/!3!B/!2!A/ | %26
"G" !3!B/!1!c/d/e/ !4!^f/!1!g/a/b/"D7/A" !4!c'/b/a/!1!g/ !3!f/!2!e/!1!d/!2!c/ | %27
"G7/B" !1!d/!2!e/!3!=f/!4!g/ !1!a/b/c'/d'/"C" !5!e'/d'/c'/b/ !1!a/!4!g/!3!f/!2!e/ | %28
"G7/D" !1!f/g/a/!4!b/ !1!c'/d'/e'/f'/"C/E" !5!g'/f'/e'/d'/ !1!c'/!4!b/!3!a/!2!g/ | %29
"F"!8va(! !1!a/b/c'/!4!d'/ !1!e'/f'/g'/a'/"G7/D" !5!b'/a'/g'/f'/ !1!e'/!4!d'/!3!c'/!2!b/ | %30
"C" !1!c'/d'/e'/!4!f'/ !1!g'/a'/b'/c''/"G7/B" !5!d''/c''/b'/a'/ !1!g'/!4!f'/!3!e'/!2!d'/ | %31
"C" !1!e'/f'/g'/!4!a'/ !1!b'/c''/d''/e''/"G7" !5!f''/e''/d''/c''/ b'/c''/d''/e''/ | %32
 f''/e''/d''/c''/ b'/c''/d''/e''/ f''/e''/d''/c''/ !1!b'/!4!a'/g'/f'/!8va)! | %33
"C" !1!e'/!4!d'/c'/b/ !1!a/!4!g/f/e/"G7" !1!d/!4!c/B/A/ !1!G/!4!F/E/D/ |"C" z2"G7/D" !4!c4 !2!B2 | %35
"C/E" !3!c2 !5!e4 !2!d2 |"Em/G" (!3!e2"F/A" !5!g4 !4!f2- |"Bdim" f2 !5!a2"G9" !4!g2 !3!f2) | %38
"C" !1!e/f/!3!g/!1!a/ b/c'/d'/!5!e'/"G/B" !1!g/a/!3!b/!1!c'/ d'/e'/f'/!5!g'/ | %39
"Am"!8va(! !1!c'/d'/!3!e'/!1!f'/ g'/a'/b'/c''/"G" !1!b/c'/!3!d'/e'/ f'/g'/a'/b'/ | %40
"F" a/b/c'/d'/ e'/f'/g'/a'/"C/E" c'/d'/e'/f'/ g'/a'/b'/c''/ | %41
"Dm" f'/g'/a'/b'/ c''/d''/e''/f''/"C" e'/f'/g'/a'/ b'/c''/d''/e''/ | %42
"Dm/F" !4!d''/c''/b'/!1!a'/ !4!b'/a'/g'/!1!f'/ !4!g'/f'/e'/!1!d'/ !4!e'/d'/c'/!1!b/!8va)! | %43
 !4!c'/b/a/g/ !4!a/g/f/e/ !4!f/e/d/c/"D7/F#" !5!d/c/B/A/ | %44
"C/G" !1!G !1!G/A/ !3!B/!1!c/d/e/ !4!f/!1!g/a/!3!b/ !1!c'/d'/e'/!4!f'/ | %45
"C/G" !5!g' z !4![gc'e'] z"G7" !1!!2!!3!!5![gbd'f'] z [dfgb] z | %46
 !5!c'/ x3/2 !5!g/ x3/2"G7" !5!b/ x3/2 !4!g/ x3/2 |"C" c'/ x3/2 g/ x3/2"G7" b/ x3/2 g/ x3/2 | %48
"C" c'/ x3/2 g/"G7" x3/2 b/ x3/2 g/ x3/2 |"C" c'/ x3/2 g/ x3/2"G7" b/ x3/2 g/ x3/2 | %50
"C" !2!!3!!5![egc'] !5!e'/d'/ c'/b/!1!a/!3!g/"G7/B" f/!1!e/!4!d/c/ B/!1!A/!3!G/F/ | %51
"C" E z [cegc'] z z4 |] %52
V:2
 !4!C, z z2 !5!B,, z G, z | !4!C, z G, z !3!D, z G, z | !5!E, z C z !4!F, z C z | %3
[K:treble] !5!G, z [DF] z A, z [CE] z | B, z [FG] z C z [EG] z | !5!D z [GB] z E z [Gc] z | %6
 !3!F z !2!!1![Ac] z z4 | !4!E z !2!!1![Gc] z z4 | !5!D z [GB] z z4 | C z [Gc] z z4 | %10
[K:bass] [F,A,D] z z2 !4!!3!!1![G,A,E]4 | [F,A,D] z z2 [G,A,E]4 | [F,A,D] z z2 !4![^F,A,D]4- | %13
 [F,A,D]4 !4![^F,,A,,D,]4 | %14
 !5!G,,/A,,/B,,/C,/ !1!D,/!3!E,/^F,/G,/ G,,/A,,/B,,/C,/ !1!D,/!3!E,/F,/G,/ | %15
 G,,/A,,/B,,/C,/ D,/E,/^F,/G,/ G,,/A,,/B,,/C,/ D,/E,/F,/G,/ | %16
 !5!D,/E,/^F,/G,/ !1!A,/!3!B,/C/D/ D,/E,/F,/G,/ A,/B,/C/D/ | %17
 D,/E,/^F,/G,/ A,/B,/C/D/ D,/E,/F,/G,/ A,/B,/C/D/ | %18
[K:treble] !5!G,/A,/B,/C/ !1!D/!3!E/^F/G/ G,/A,/B,/C/ D/E/F/G/ | %19
 G,/A,/B,/C/ D/E/^F/G/ G,/A,/B,/C/ D/E/F/G/ | !5!D/E/^F/G/ !1!A/!3!B/c/d/ D/E/F/G/ A/B/c/d/ | %21
 D/E/^F/G/ A/B/c/d/ D/E/F/G/ A/B/c/d/ | !5!G/A/B/c/ !1!d/!3!e/^f/g/ !5!B z [dg] z | %23
 A z !2!!1![d^f] z D z [^Fc] z | !5!G,/A,/B,/C/ !1!D/!3!E/^F/G/ B, z [DG] z | %25
 A, z !1![D^F] z[K:bass] D, z [^F,C] z | !5!G, z [B,D] z !5!A, z[K:treble] [CD^F] z | %27
 B, z [=FG] z C z [EG] z | D z [FGB] z !5!E z [Gc] z | !4!F z [Ac] z D z [FGB] z | %30
 E z [Gc] z B, z [FG] z | C z [EG] z[K:bass] [G,B,DF]4- | [G,B,DF]4 [B,,D,G,]4 | %33
 [C,E,G,]4 [G,,B,,F,]4 | %34
 !5!C,,/D,,/E,,/F,,/ !1!G,,/!3!A,,/B,,/C,/ !5!D,,/E,,/F,,/G,,/ !1!A,,/!3!B,,/C,/D,/ | %35
 E,,/F,,/G,,/A,,/ B,,/C,/D,/E,/ F,,/G,,/A,,/B,,/ C,/D,/E,/F,/ | %36
 G,,/A,,/B,,/C,/ D,/E,/F,/G,/ A,,/B,,/C,/D,/ E,/F,/G,/A,/ | %37
 B,,/C,/D,/E,/ F,/G,/A,/B,/[K:treble] !5!G,/A,/B,/C/ !1!D/!3!E/F/G/ | %38
 !5!C/D/E/F/ G/A/B/c/ B,/C/D/E/ F/G/A/B/ | A,/B,/C/D/ E/!3!F/G/A/ G,/A,/B,/C/ D/E/F/G/ | %40
[K:bass] F,/G,/A,/B,/ C/D/E/F/ E,/F,/G,/A,/ B,/!3!C/D/E/ | %41
 D,/E,/F,/G,/ A,/!3!B,/C/D/ C,/D,/E,/F,/ G,/!3!A,/B,/!1!C/ | !5!!4!!2![F,A,D]8- | %43
 [F,A,D]6 !5!!3!!2![^F,CD]2 | %44
 !5!!3!!1![G,CE] !1!G,/=F,/ !3!E,/!1!D,/C,/B,,/ !4!A,,/!1!G,,/F,,/E,,/ !1!D,,/C,,/B,,,/A,,,/ | %45
 G,,, z G,, z G,,, z [G,,G,] z | C, z [G,CE] z G,, z [G,DF] z | C, z [G,CE] z G,, z [G,DF] z | %48
 [C,,C,] z [E,,E,] z [G,,G,] z [G,,,G,,] z | [C,,C,] z [E,,E,] z [G,,G,] z [G,,,G,,] z | %50
 [C,,C,] !5!C,,/D,,/ E,,/F,,/!1!G,,/!3!A,,/ B,,/!1!C,/!4!D,/E,/ F,/!1!G,/!3!A,/B,/ | %51
 C z [C,,C,] z z4 |] %52
V:3
 x8 | x8 | x8 | x8 | x8 | x8 |!8va(! x8 | x8 | x8!8va)! | x8 | x8 | x8 | x4!8va(! x4 | %13
 x4!8va)! x4 | x4 (!5!g3 !3!d) | x8 |"D7" (!1!!5!d2 !4!c) z (!5!c'3 !4!a) | x8 | B3 z!8va(! !2!b4 | %19
 x8 |"D7" (!5!d'2 c') z (!5!c''3 !4!a') | x8 | x8 | x8!8va)! | x8 | x8 | x8 | x8 | x8 |!8va(! x8 | %30
 x8 | x8 | x8!8va)! | x8 | (!1!E4 !1!F4 | !1!G4"Dm/F" !1!A4) | !1!G4 !1!c4 | !2!d4 !1!B4 | x8 | %39
!8va(! x8 | x8 | x8 | x8!8va)! | x8 | x8 | x8 | %46
 c'/!1!c/!2!d/!3!e/ g/!3!e/!2!d/!1!c/ b/!1!d/!2!e/!3!f/ g/!3!f/!2!e/!1!d/ | %47
 c'/c/d/e/ g/e/d/c/ b/d/e/f/ g/f/e/d/ | c'/c/d/e/ g/e/d/c/ b/d/e/f/ g/f/e/d/ | %49
 c'/c/d/e/ g/e/d/c/ b/d/e/f/ g/f/e/d/ | x8 | x8 |] %52

